dist/assets/youtube-icon.svg

<svg viewBox="0 -4 32 32" xmlns="http://www.w3.org/2000/svg" preserveAspectRatio="xMidYMid"><path d="M30.722 20.579c-.585 1.315-2.094 2.506-3.511 2.769-.145.027-3.608.652-11.201.652h-.02c-7.592 0-11.058-.625-11.202-.651-1.417-.264-2.927-1.455-3.513-2.771C1.223 20.461.001 17.647.001 12c0-5.647 1.222-8.462 1.274-8.579C1.861 2.105 3.371.915 4.788.652 4.932.625 8.398 0 15.99 0c7.613 0 11.076.625 11.22.651 1.418.264 2.927 1.454 3.513 2.769C30.775 3.538 32 6.353 32 12s-1.225 8.461-1.278 8.579ZM28.893 4.23c-.312-.701-1.29-1.471-2.048-1.612C26.813 2.612 23.386 2 16.01 2c-7.395 0-10.825.612-10.858.618-.758.141-1.735.911-2.048 1.616-.01.021-1.102 2.595-1.102 7.766 0 5.17 1.092 7.744 1.104 7.77.311.701 1.288 1.471 2.047 1.612.032.006 3.462.618 10.837.618h.02c7.376 0 10.803-.612 10.836-.618.758-.141 1.735-.911 2.048-1.616.01-.022 1.104-2.596 1.104-7.766s-1.094-7.745-1.105-7.77ZM13.541 17.846a.994.994 0 0 1-1.016.029 1 1 0 0 1-.517-.875V7a.999.999 0 0 1 1.526-.851l8.019 4.956a.999.999 0 0 1 .007 1.696l-8.019 5.045Zm.468-9.052v6.395l5.128-3.226-5.128-3.169Z" style="fill:#09272a"/></svg>

<?xml version="1.0" encoding="utf-8"?><!-- Uploaded to: SVG Repo, www.svgrepo.com, Generator: SVG Repo Mixer Tools -->
<svg fill="#000000" viewBox="0 -4 32 32" xmlns="http://www.w3.org/2000/svg" preserveAspectRatio="xMidYMid">
   <style type="text/css">
	.svg-ic{fill:#09272a;}
</style>
    <path class="svg-ic" d="M30.722,20.579 C30.137,21.894 28.628,23.085 27.211,23.348 C27.066,23.375 23.603,24.000 16.010,24.000 L15.990,24.000 C8.398,24.000 4.932,23.375 4.788,23.349 C3.371,23.085 1.861,21.894 1.275,20.578 C1.223,20.461 0.001,17.647 0.001,12.000 C0.001,6.353 1.223,3.538 1.275,3.421 C1.861,2.105 3.371,0.915 4.788,0.652 C4.932,0.625 8.398,-0.000 15.990,-0.000 C23.603,-0.000 27.066,0.625 27.210,0.651 C28.628,0.915 30.137,2.105 30.723,3.420 C30.775,3.538 32.000,6.353 32.000,12.000 C32.000,17.647 30.775,20.461 30.722,20.579 ZM28.893,4.230 C28.581,3.529 27.603,2.759 26.845,2.618 C26.813,2.612 23.386,2.000 16.010,2.000 C8.615,2.000 5.185,2.612 5.152,2.618 C4.394,2.759 3.417,3.529 3.104,4.234 C3.094,4.255 2.002,6.829 2.002,12.000 C2.002,17.170 3.094,19.744 3.106,19.770 C3.417,20.471 4.394,21.241 5.153,21.382 C5.185,21.388 8.615,22.000 15.990,22.000 L16.010,22.000 C23.386,22.000 26.813,21.388 26.846,21.382 C27.604,21.241 28.581,20.471 28.894,19.766 C28.904,19.744 29.998,17.170 29.998,12.000 C29.998,6.830 28.904,4.255 28.893,4.230 ZM13.541,17.846 C13.379,17.949 13.193,18.000 13.008,18.000 C12.842,18.000 12.676,17.959 12.525,17.875 C12.206,17.699 12.008,17.364 12.008,17.000 L12.008,7.000 C12.008,6.637 12.204,6.303 12.521,6.127 C12.838,5.950 13.227,5.958 13.534,6.149 L21.553,11.105 C21.846,11.286 22.026,11.606 22.027,11.951 C22.028,12.296 21.852,12.618 21.560,12.801 L13.541,17.846 ZM14.009,8.794 L14.009,15.189 L19.137,11.963 L14.009,8.794 Z"/>
</svg>
